Numix-GalliumOS/22/panel/copy-sync1.svg

<?xml version="1.0" encoding="UTF-8" standalone="no"?>
<!-- Generator: Adobe Illustrator 15.1.0, SVG Export Plug-In . SVG Version: 6.00 Build 0)  -->

<svg
   xmlns:dc="http://purl.org/dc/elements/1.1/"
   xmlns:cc="http://creativecommons.org/ns#"
   xmlns:rdf="http://www.w3.org/1999/02/22-rdf-syntax-ns#"
   xmlns:svg="http://www.w3.org/2000/svg"
   xmlns="http://www.w3.org/2000/svg"
   xmlns:sodipodi="http://sodipodi.sourceforge.net/DTD/sodipodi-0.dtd"
   xmlns:inkscape="http://www.inkscape.org/namespaces/inkscape"
   version="1.1"
   id="Layer_1"
   x="0px"
   y="0px"
   width="22"
   height="22"
   viewBox="0 0 22 22"
   enable-background="new 0 0 24 24"
   xml:space="preserve"
   inkscape:version="0.91 r"
   sodipodi:docname="copy-sync1.svg"><metadata
     id="metadata29"><rdf:RDF><cc:Work
         rdf:about=""><dc:format>image/svg+xml</dc:format><dc:type
           rdf:resource="http://purl.org/dc/dcmitype/StillImage" /><dc:title /></cc:Work></rdf:RDF></metadata><defs
     id="defs27" /><sodipodi:namedview
     pagecolor="#ffffff"
     bordercolor="#666666"
     borderopacity="1"
     objecttolerance="10"
     gridtolerance="10"
     guidetolerance="10"
     inkscape:pageopacity="0"
     inkscape:pageshadow="2"
     inkscape:window-width="1366"
     inkscape:window-height="747"
     id="namedview25"
     showgrid="false"
     inkscape:zoom="9.8333335"
     inkscape:cx="16.046985"
     inkscape:cy="2.2135913"
     inkscape:window-x="0"
     inkscape:window-y="21"
     inkscape:window-maximized="1"
     inkscape:current-layer="Layer_1" /><polygon
     points="18.162,10.28 16.033,8.347 22.172,0.866 22.76,1.286 "
     id="polygon17"
     style="opacity:0.4;fill:#ececec;fill-opacity:1"
     transform="matrix(0.88289963,0,0,0.88294066,0.40520444,0.73537336)" /><path
     transform="matrix(0.88289963,0,0,0.88294066,0.40520444,0.73537336)"
     style="fill:#ececec;fill-opacity:1"
     d="m 5.275,10.28 -4.035,1.345 0,-1.345 4.035,-3.501 1.344,0.81 1.1635,2.862 -1.835,2.51875 z"
     id="polygon19"
     inkscape:connector-curvature="0"
     sodipodi:nodetypes="cccccccc" /><path
     style="opacity:0.4;fill:#ececec;fill-opacity:1"
     d="M 5.0625 6.7207031 L 1.5 9.8125 L 1.5 11 L 5.0625 9.8125 L 6.25 14.5625 L 7.4375 19.3125 L 10.357422 17.544922 L 10.357422 17.542969 L 20.140625 20.5 L 20.466797 20.5 L 20.5 20.230469 L 16.9375 12.1875 L 15.75 11 L 9.671875 15.857422 L 8.3027344 12.490234 L 6.25 7.4355469 L 5.0625 6.7207031 z "
     id="polyline21" /><path
     d="M 10.504693,13.373786 8.6497212,9.8120033 11,8.6244482 c 1.186617,0 3.560734,1.1875551 3.560734,1.1875551 l -4.056041,3.5617827 z"
     id="path23"
     inkscape:connector-curvature="0"
     style="opacity:0.4;fill:#ececec;fill-opacity:1" /></svg>

<!-- Generator: Adobe Illustrator 15.1.0, SVG Export Plug-In . SVG Version: 6.00 Build 0)  -->
<svg xmlns="http://www.w3.org/2000/svg" viewBox="0 0 22 22" style="enable-background:new 0 0 24 24">
 <polygon points="18.162,10.28 16.033,8.347 22.172,0.866 22.76,1.286 " transform="matrix(0.88289963,0,0,0.88294066,0.40520444,0.73537336)" style="fill:#ececec;opacity:0.4;fill-opacity:1"/>
 <path transform="matrix(0.88289963,0,0,0.88294066,0.40520444,0.73537336)" d="m 5.275 10.28 -4.04 1.345 0 -1.345 4.04 -3.501 1.344 0.81 1.164 2.862 -1.835 2.519 z" style="fill:#ececec;fill-opacity:1"/>
 <path d="m 5.063 6.721 l -3.563 3.092 l 0 1.188 l 3.563 -1.188 l 1.188 4.75 l 1.188 4.75 l 2.92 -1.768 l 0 -0.002 l 9.783 2.957 l 0.326 0 l 0.033 -0.27 l -3.563 -8.04 l -1.188 -1.188 l -6.078 4.857 l -1.369 -3.367 l -2.053 -5.05 l -1.188 -0.715 z" style="fill:#ececec;opacity:0.4;fill-opacity:1"/>
 <path d="m 10.505 13.374 -1.855 -3.562 2.35 -1.188 c 1.187 0 3.561 1.188 3.561 1.188 l -4.056 3.562 z" style="fill:#ececec;opacity:0.4;fill-opacity:1"/>
</svg>
